!!!COM: Monteverdi, Claudio
!!!CDT:
!!!PTL: Il terzo libro de madrigali a cinque voci
!!!PPP: Venice
!!!PPR: Ricciardo Amadino
!!!PDT: 1592
!!!PUB-format:
!!!RISM: M 3459
!!!OTL: Là tra 'l sangue e le morti egro giacente
!!!AGN: Madrigal
!!!SCT: Tsg16060a
!!!SCA: Tsg16060a
!!!original-voices: 5
!!!extant-voices: 5
!!!complete: Y
!!!final: (A)D
**kern	**text	**kern	**text	**kern	**text	**kern	**text	**kern	**text
*part5	*part5	*part4	*part4	*part3	*part3	*part2	*part2	*part1	*part1
*staff5	*staff5	*staff4	*staff4	*staff3	*staff3	*staff2	*staff2	*staff1	*staff1
*I"Basso	*	*I"Tenore	*	*I"Alto	*	*I"Quinto	*	*I"Canto	*
*I'B	*	*I'T	*	*I'A	*	*I'V	*	*I'C	*
*oclefF3	*	*oclefC3	*	*oclefC2	*	*oclefG2	*	*oclefG2	*
*clefF4	*	*clefGv2	*	*clefG2	*	*clefG2	*	*clefG2	*
*k[]	*	*k[]	*	*k[]	*	*k[]	*	*k[]	*
*C:	*	*C:	*	*C:	*	*C:	*	*C:	*
*omet(C)	*	*omet(C)	*	*omet(C)	*	*omet(C)	*	*omet(C)	*
*M4/2	*	*M4/2	*	*M4/2	*	*M4/2	*	*M4/2	*
=1	=1	=1	=1	=1	=1	=1	=1	=1	=1
!!LO:TX:a:t=Seconda parte.
2.d	Là	1r	.	0r	.	2.ff	Là	1r	.
4e	tra’l	.	.	.	.	4gg	tra’l	.	.
2f	san-	2.d	Là	.	.	2aa	san-	2.ff	Là
4f	-gue e	.	.	.	.	4aa	-gue e	.	.
4e	le	4e	tra’l	.	.	4gg	le	4gg	tra’l
=2	=2	=2	=2	=2	=2	=2	=2	=2	=2
1.d	mor-	2f	san-	2.d	Là	1ff	mor-	2aa	san-
.	.	4f	-gue e	.	.	.	.	4aa	-gue e
.	.	4e	le	4e	tra’l	.	.	4gg	le
.	.	[1d	mor-	2f	san-	1a	-ti e-	1ff	mor-
[2D	-ti e-	.	.	4f	-gue e	.	.	.	.
.	.	.	.	4e	le	.	.	.	.
=3	=3	=3	=3	=3	=3	=3	=3	=3	=3
2D]	.	2d]	.	2d	mor-	1.f	-gro	1a	-ti e-
1D	-gro	2.A	-ti e-	2.d	-ti e-	.	.	.	.
.	.	.	.	.	.	.	.	2a	-gro
.	.	4A	-gro	4d	-gro	.	.	.	.
2F	gia-	2A	gia-	2c	gia-	2f	gia-	2f	gia-
=4	=4	=4	=4	=4	=4	=4	=4	=4	=4
1C	-cen-	1G	-cen-	1c	-cen-	1e	-cen-	1g	-cen-
1C	-te	1G	-te	2c	-te	1e	-te	1g	-te
.	.	.	.	4r	.	.	.	.	.
.	.	.	.	4cc	Mi	.	.	.	.
=5	=5	=5	=5	=5	=5	=5	=5	=5	=5
0r	.	0r	.	4cc	pa-	4r	.	4r	.
.	.	.	.	4cc	-ghe-	4ee	Mi	4gg	Mi
.	.	.	.	4cc	-rai	4ee	pa-	4gg	pa-
.	.	.	.	4cc	le	4ee	-ghe-	4gg	-ghe-
.	.	.	.	2cc	pe-	4ee	-rai	4gg	-rai
.	.	.	.	.	.	4ee	le	4gg	le
.	.	.	.	2cc	-ne em-	[2ff	pe-	[2aa	pe-
=6	=6	=6	=6	=6	=6	=6	=6	=6	=6
0r	.	0r	.	2cc	-pio	2ff]	.	2aa]	.
.	.	.	.	2cc	Guer-	2.ee	-ne em-	2.gg	-ne, em-
.	.	.	.	[1a	-rie-	.	.	.	.
.	.	.	.	.	.	2ee	-pio	2gg	-pio
.	.	.	.	.	.	4dd	Guer-	4ff	Guer-
=7	=7	=7	=7	=7	=7	=7	=7	=7	=7
1r	.	4r	.	1a]	.	4dd	-rie-	4ff	-rie-
.	.	4A	Per	.	.	8cc#XL	.	8eeL	.
.	.	.	.	.	.	8bJ	.	8ddJ	.
.	.	4A	no-	.	.	2cc#X	.	2ee	.
.	.	4A	-me Ar-	.	.	.	.	.	.
4r	.	2f	-mi-	1a	-ro.	1dd	-ro.	4dd	-ro.
4D	Per	.	.	.	.	.	.	4a	Per
4D	no-	4f	-da	.	.	.	.	4a	no-
4D	-me Ar-	8f	chia-	.	.	.	.	4a	-me Ar-
.	.	8g	-me-	.	.	.	.	.	.
=8	=8	=8	=8	=8	=8	=8	=8	=8	=8
1d	-mi-	2a	-rai,	4r	.	4r	.	2ff	-mi-
.	.	.	.	4d	Per	4a	Per	.	.
.	.	2r	.	4d	no-	4a	no-	2ff	-da,
.	.	.	.	4d	-me Ar-	4a	-me Ar-	.	.
4d	-da,	4r	.	2a	-mi-	2ff	-mi-	2r	.
4D	Ar-	8d	chia-	.	.	.	.	.	.
.	.	8e	-me-	.	.	.	.	.	.
2d	-mi-	2f	-rai,	2a	-da	4ff	-da	4r	.
.	.	.	.	.	.	8ff	chia-	4a	Ar-
.	.	.	.	.	.	8gg	-me-	.	.
=9	=9	=9	=9	=9	=9	=9	=9	=9	=9
4d	-da	4r	.	2r	.	2aa	-rai,	2ff	-mi-
8d	chia-	8fL	.	.	.	.	.	.	.
8e	-me-	8gJ	.	.	.	.	.	.	.
2f	-rai,	2a	.	4r	.	2r	.	4ff	-da
.	.	.	.	8d	chia-	.	.	8ff	chia-
.	.	.	.	8e	-me-	.	.	8gg	-me-
4r	.	1r	.	2f	-rai,	4r	.	2aa	-rai,
4F	Ar-	.	.	.	.	8cc	chia-	.	.
.	.	.	.	.	.	8dd	-me-	.	.
2c	-mi-	.	.	4r	.	[2ee	-rai,	4r	.
.	.	.	.	8g	chia-	.	.	8ee	chia-
.	.	.	.	8f	-me-	.	.	8ff	-me-
=10	=10	=10	=10	=10	=10	=10	=10	=10	=10
4c	-da	4r	.	4e	-rai,	4ee]	.	2gg	-rai
8C	chia-	8g	chia-	8cc	<chia-	8ee	chia-	.	.
8D	-me-	8f	-me-	8cc	-me-	8ff	-me-	.	.
4E	-rai	4e	-rai	4cc	-rai>	4gg	-rai	4gg	so-
4F	so-	4c	so-	4cc	so-	4aa	so-	2ff	-ven-
2C	-ven-	2c	-ven-	2cc	-ven-	2gg	-ven-	.	.
.	.	.	.	.	.	.	.	4ee	.
2F	-te	2c	-te	2a	-te	2ff	-te	2ff	-te
=11	=11	=11	=11	=11	=11	=11	=11	=11	=11
4c	Ne	4c	Ne	4g	Ne	4gg	Ne	4ee	Ne
2c	gli ul-	2e	gli ul-	2cc	gli ul-	2gg	gli ul-	2ee	gli ul-
4d	-ti-	4f	-ti-	4a	-ti-	4ff	-ti-	4dd	-ti-
4A	-mi	4c	-mi	4a	-mi	4ee	-mi	4cc	-mi
4B-X	sin-	4d	sin-	4f	sin-	4dd	sin-	4b-X	sin-
2F	-gul-	2A	-gul-	[2f	-gul-	2cc	-gul-	2a	-gul-
=12	=12	=12	=12	=12	=12	=12	=12	=12	=12
2D	-ti: u-	4A	-ti: u-	4f]	.	2dd	-ti: u-	4a	-ti: u-
.	.	2F	-dir	2f	-ti: u-	.	.	2a	-dir
4A	-dir	.	.	.	.	4cc	-dir	.	.
4F	ciò	4F	ciò	2d	-dir	4dd	ciò	4a	ciò
1E	spe-	1G	spe-	.	.	1ee	spe-	1g	spe-
.	.	.	.	4c#X	ciò	.	.	.	.
.	.	.	.	2c#X	spe-	.	.	.	.
=13	=13	=13	=13	=13	=13	=13	=13	=13	=13
1D	-ro.”	1A	-ro.”	1d	-ro.”	1a	-ro.”	2f#X	-ro.”
.	.	.	.	.	.	.	.	2dd	Hor
1r	.	1r	.	1r	.	1aa	Hor	2cc#X	qui
.	.	.	.	.	.	.	.	2ccnXi	man-
=14	=14	=14	=14	=14	=14	=14	=14	=14	=14
1r	.	0r	.	0r	.	2gg#X	qui	2b	-cò
.	.	.	.	.	.	2ggnXi	man-	2b-X	lo
1d	Hor	.	.	.	.	2ff#X	-cò	1a	spir-
.	.	.	.	.	.	2ffnXi	lo	.	.
=15	=15	=15	=15	=15	=15	=15	=15	=15	=15
2c#X	qui	0r	.	0r	.	2ee	spir-	2a	-to,
2cnXi	man-	.	.	.	.	2ee	-to a	2aa	Hor
2B	-cò	.	.	.	.	1dd	la	2gg#X	qui
2B-X	lo	.	.	.	.	.	.	2ggnXi	man-
=16	=16	=16	=16	=16	=16	=16	=16	=16	=16
1A	spir-	1r	.	0r	.	2cc#X	do-	2ff#X	-cò
.	.	.	.	.	.	1dd	-len-	2ffnXi	lo
1A	-to a	1a	Hor	.	.	.	.	[1ee	spir-
.	.	.	.	.	.	2ccnXi	-te, a	.	.
=17	=17	=17	=17	=17	=17	=17	=17	=17	=17
2E	la	2g#X	qui	0r	.	1b	la	2ee]	.
2G	do-	2gnXi	man-	.	.	.	.	1ee	-to a
1D	-len-	2f#X	-cò	.	.	1a	do-	.	.
.	.	2fnXi	lo	.	.	.	.	[2dd	la
=18	=18	=18	=18	=18	=18	=18	=18	=18	=18
0E	-te,	1.e	spir-	0r	.	2g#X	-len-	2dd]	.
.	.	.	.	.	.	1a	-te, a	2cc	do-
.	.	.	.	.	.	.	.	1b	-len-
.	.	[2e	-to a	.	.	[2gnXi	la	.	.
=19	=19	=19	=19	=19	=19	=19	=19	=19	=19
0A	Hor	2e]	.	0r	.	2g]	.	0a	-te,
.	.	1d	la	.	.	2f	do-	.	.
.	.	.	.	.	.	[1e	-len-	.	.
.	.	2c	do-	.	.	.	.	.	.
=20	=20	=20	=20	=20	=20	=20	=20	=20	=20
2G#X	qui	1B	-len-	1r	.	1e]	.	0r	.
2GnXi	man-	.	.	.	.	.	.	.	.
2F#X	-cò	1A	-te,	1a	Hor	1d	-te,	.	.
2FnXi	lo	.	.	.	.	.	.	.	.
=21	=21	=21	=21	=21	=21	=21	=21	=21	=21
1E	spir-	2r	.	2g#X	qui	0r	.	0r	.
.	.	1e	a	2gnXi	man-	.	.	.	.
[1A	-to a	.	.	2f#X	-cò	.	.	.	.
.	.	[2d	la	2fnXi	lo	.	.	.	.
=22	=22	=22	=22	=22	=22	=22	=22	=22	=22
1A]	.	2d]	.	2e	spir-	0r	.	0r	.
.	.	2c	do-	1e	-to a	.	.	.	.
2G	la	2.B	-len-	.	.	.	.	.	.
2F	do-	.	.	[2d	la	.	.	.	.
.	.	4A	.	.	.	.	.	.	.
=23	=23	=23	=23	=23	=23	=23	=23	=23	=23
1E	-len-	2G#X	.	2d]	.	0r	.	1r	.
.	.	1A	.	2c	do-	.	.	.	.
1E	-te,	.	.	1B	-len-	.	.	2r	.
.	.	2G#X	.	.	.	.	.	[2ee	Né
=24	=24	=24	=24	=24	=24	=24	=24	=24	=24
1.A	Né	2A	-te,	2c#X	-te,	1.a	Né	2ee]	.
.	.	1c	Né	1e	Né	.	.	2ee	que-
.	.	.	.	.	.	.	.	2.ee	-st’ul-
2A	que-	2c	que-	2e	que-	2a	que-	.	.
.	.	.	.	.	.	.	.	4ee	-ti-
=25	=25	=25	=25	=25	=25	=25	=25	=25	=25
2.A	-st’ul-	2.c	-st’ul-	2.e	-st’ul-	2.a	-st’ul-	2ee	-mo
.	.	.	.	.	.	.	.	1a	suo-
4A	-ti-	4c	-ti-	4e	-ti-	4a	-ti-	.	.
2A	-mo	2c	-mo	2e	-mo	2a	-mo	.	.
[2D	suo-	[2A	suo-	[2d	suo-	[2f#X	suo-	2a	-no
=26	=26	=26	=26	=26	=26	=26	=26	=26	=26
2D]	.	2A]	.	2d]	.	2f#]	.	2r	.
2D	-no	2A	-no	2d	-no	2f#X	-no	2a	e-
2r	.	2r	.	2r	.	2r	.	2a	-spres-
2D	e-	2A	e-	2d	e-	2f#i	e-	2a	-se in-
=27	=27	=27	=27	=27	=27	=27	=27	=27	=27
2D	-spres-	2A	-spres-	2d	-spres-	2f#i	-spres-	1dd	-te-
2D	-se in-	2A	-se in-	2d	-se in-	2f#i	-se in-	.	.
1G	-te-	1B	-te-	1d	-te-	1g	-te-	1dd	-ro;
=28	=28	=28	=28	=28	=28	=28	=28	=28	=28
1G	-ro;	1B	-ro;	1d	-ro;	1g	-ro;	2r	.
.	.	.	.	.	.	.	.	4r	.
.	.	.	.	.	.	.	.	4gg	E
4r	.	2r	.	2r	.	2r	.	2g	ca-
4c	E	.	.	.	.	.	.	.	.
2C	ca-	4r	.	4r	.	4r	.	2g	-de
.	.	4c	E	4g	E	4ee	E	.	.
=29	=29	=29	=29	=29	=29	=29	=29	=29	=29
2C	-de	4G	ca-	4c	ca-	4e	ca-	2g	tra-
.	.	4G	-de	4c	-de	4e	-de	.	.
4C	tra-	4G	tra-	4c	tra-	4e	tra-	2e	-mor-
4C	-mor-	4c	-mor-	4G	-mor-	4c	-mor-	.	.
1BB-X	-ti-	1F	-ti-	2B-X	-ti-	1d	-ti-	1f	-ti-
.	.	.	.	2B-i	-ta	.	.	.	.
=30	=30	=30	=30	=30	=30	=30	=30	=30	=30
1BB-i	-ta	2F	-ta	4r	.	1d	-ta	[2f	-ta
.	.	.	.	4b-X	e	.	.	.	.
.	.	2r	.	4b-i	si	.	.	2f]	.
.	.	.	.	4b-i	dif-	.	.	.	.
4r	.	4r	.	2f	-fu-	4r	.	4r	.
4B-X	e	4d	e	.	.	4dd	e	4f	e
4B-i	si	4d	si	2f	-se	4dd	si	4b-X	si
4B-i	dif-	4B-X	dif-	.	.	4dd	dif-	4b-i	dif-
=31	=31	=31	=31	=31	=31	=31	=31	=31	=31
1F	-fu-	1c	-fu-	2r	.	1cc	-fu-	2a	-fu-
.	.	.	.	4f	Di	.	.	2a	-se
.	.	.	.	4f	ge-	.	.	.	.
2F	-se	1c	-se	1a	-la-	2cc	-se	2r	.
4F	Di	.	.	.	.	4cc	Di	4ff	Di
4F	ge-	.	.	.	.	4cc	ge-	4ff	ge-
=32	=32	=32	=32	=32	=32	=32	=32	=32	=32
1A	-la-	2r	.	1a	-to	1cc#X	-la-	1ee	-la-
.	.	4A	Di	.	.	.	.	.	.
.	.	4A	ge-	.	.	.	.	.	.
2A	-to	2e	-la-	1a	su-	2cc#X	-to	2ee	-to
2A	su-	4e	-to	.	.	2cc#X	su-	2a	su-
.	.	4e	su-	.	.	.	.	.	.
=33	=33	=33	=33	=33	=33	=33	=33	=33	=33
2.D	-do-	2d	-do-	2f#X	-do-	2dd	-do-	2a	-do-
.	.	2A	-re, e i	2fnXi	-re e i	2dd	-re, e i	2a	-re, e i
4D	-re, e i	.	.	.	.	.	.	.	.
2F	lu-	2A	lu-	2fnXi	lu-	2cc	lu-	2.a	lu-
2F	-mi	2A	-mi	2c	-mi	2a	-mi-	.	.
.	.	.	.	.	.	.	.	4g	-mi
=34	=34	=34	=34	=34	=34	=34	=34	=34	=34
1D	chiu-	1A	chiu-	1d	chiu-	1a	-chiu-	1f	chiu-
2AAl	-se.	2Al	-se.	2c#Xl	-se.	2al	-se.	2el	-se.
==	==	==	==	==	==	==	==	==	==
*-	*-	*-	*-	*-	*-	*-	*-	*-	*-
!!!system-decoration: [*]
!!!RDF**kern: i = editorial accidental
!!!RDF**kern: l = terminal long
!!!ENC: Emiliano Ricciardi
!!!END: 2019
!!!EED: Giles, Roseen
!!!EEV: 2019/01/21
!!!YEC: Copyright 2018 Emiliano Ricciardi, All Rights Reserved
!!!ONB: Translated from MusicXML on 2019/01/21
!!@@BEGIN:	VERSEDATA
!!@CATALOGNUM:	Tsg16060
!!@LAST_MODIFIED: 2020/07/12
!!@TITLE:		Là tra 'l sangue e le morti egro giacente
!!@CANTO:		XVI
!!@OTTAVA:	60
!!@MANUSRC:	G-Al, G-Au, G-Br<sub>1</sub>, G-Br<sub>2</sub>, G-Cv, G-Es<sub>1</sub>, G-Es<sub>2</sub>, G-Es<sub>3</sub>, G-F, G-Fr, G-Fr<sub>1</sub>, G-Fr<sub>2</sub>, G-Mc<sub>1</sub>, G-Mg, G-Mr, G-Mt, G-N, G-Ol
!!@PRINTSRC:	G-1580CM, G-1581B, G-1581CV, G-1581R, G-1581MR, G-1581P, G-1581V, G-1581V<sub>bis</sub>, G-1582C, G-1582M, G-1582MC, G-1582P, G-1582SC, G-1582SC<sub>bis</sub>, G-1583S, G-1584O, G-1584S, G-1585C, G-1585S, G-1588S, G-1589S, G-1590B, G-1590S, G-1592S, G-1593S, G-1594C, G-1595C, G-1597C, G-1598C, G-1599C, G-1600C, G-1600S, G-1601C, G-1601R, G-1602C, G-1604C, G-1604Cl, G-1604F, G-1604P, G-1606B, G-1606B<sub>bis</sub>, G-1606L, G-1607ZR, G-1608DP, G-1609GC, G-1610M, G-1611S, G-1611V, G-1612P, G-1613M, G-1613P, G-1613V, G-1615P, G-1616M, G-1617P, G-1619B, G-1619V, G-1620M, G-1620S, G-1621R, G-1624I, G-1624MT, G-1625C, G-1625S, G-1625SS, G-1626C, G-1626Co, G-1627M, G-1628T, G-1628Tu, G-1630L, G-1630T, G-1632FT, G-1639CF, G-1642M, G-1643I, G-1644P, G-1644S
!!@@BEGIN:	VERSES
!!@ABOUTIT:
!!@ABOUTEN:
!!@EDITOR:	Angelo Solerti
!!@EDITION_TITLE: Gerusalemme liberata. Poema eroico di Torquato Tasso. Edizione critica sui manoscritti e le prime stampe.
!!@EDITION_LOC:	Florence
!!@EDITION_PUB:	G. Barbera
!!@EDITION_DATE:  1895
!!@EDITION_VOL:
!!@EDITION_PAGE:
!!@TRANSLATOR:	Emiliano Ricciardi and Amyrose McCue Gill
!!@VERSE:
!!	Là tra ’l sangue e le morti egro giacente
!!	Mi pagherai le pene, empio guerriero.
!!	Per nome Armida chiamerai sovente
!!	Negli ultimi singulti; udir ciò spero...
!!	Or qui mancò lo spirto alla dolente;
!!	Né quest’ultimo suono espresse intero:
!!	E cadde tramortita, e si diffuse
!!	Di gelato sudore, e i lumi chiuse.
!!@TVERSE:
!!	There among the blood and the dead, weak, prostrate,
!!	You will pay me for my pains, wicked warrior.
!!	For the name Armida you will call often
!!	With your last sobs; to hear that I wish…
!!	Now here breath was lacking from the suffering woman;
!!	Nor this last sound did she express entire:
!!	And fell stunned, and was drenched
!!	In icy sweat, and closed her eyes.
!!@@END:		VERSES
!!@OTHER_CRIT_ED:  Torquato Tasso, <i>Gerusalemme liberata</i>, ed. Lanfranco Caretti, 2 vols. (Bari: Laterza, 1967).
!!@ATTRIBUTION_ABOUT:
!!@DATING:	mid-1560s through 1570s
!!@DEDICATEE:	Duke Alfonso II d'Este
!!@COMMENTARY:
!!@@END:		VERSEDATA
!!@@BEGIN: SETTING
!!@CATALOGNUM:	Tsg16060a
!!@CANTO:		XVI
!!@OTTAVA:	60
!!@TITLE:	Là tra 'l sangue e le morti egro giacente
!!@COMPOSER:	Monteverdi, Claudio
!!@PARTS:		2 of 3
!!@PRINCEPSTITLE:	Il terzo libro de madrigali a cinque voci
!!@PRINCEPSLOC:	Venice
!!@NORMLOC:	Venice
!!@NORMPUB:	Ricciardo Amadino
!!@NORMPUBSHORT:	Amadino
!!@PRINCEPSPUB:	Ricciardo Amadino
!!@PRINCEPSYEAR:	1592
!!@PRINCEPSRISM:	M 3459
!!@OVOICES:	5
!!@EXTANTVOICES:	5
!!@OMENSURATION:	C
!!@OCLEFS:	G2,G2,C2,C3,F3
!!@OTIME:		
!!@OKEYSIG:	-
!!@FINAL:		(A)D
!!@TIMPEDITOR:	Giles, Roseen
!!@REPRINTS:	M 3460, M 3461, M 3462, M 3463, M 3464
!!@YOUTUBE:	ilNWO9EGO8I
!!@YOUTUBESTART:	2354
!!@YOUTUBEEND:	2534
!!@@END: SETTING
